X: 589
T: Nao wugeng
L: 1/8
M: 2/4
K: A
BB2e [I:setbarnb 1]| 
c BA2 | 
A B A F | 
E3F | 
A A A A/ B/ | 
c e c B | 
A B A F | 
E4 | 
e2c2 | 
Be2B | 
c2E F | 
A4 | 
cB2A | 
E F A A | 
F E C B, | 
A,4 | 
A> F E F | 
A4 | 
cB2A | 
E F A A | 
F E C B, | 
A,4 |]

@@@ Tune index: 9463
